rospo-light/16x16/actions/labplot-shift-down-y.svg

<svg height="16" viewBox="0 0 16 16" width="16" xmlns="http://www.w3.org/2000/svg"><path d="m8 3-2 4h4zm-4 6-4 2 4 2zm8 0v4l4-2zm-4 1c-.554 0-1 .446-1 1s .446 1 1 1 1-.446 1-1-.446-1-1-1z" fill="#5c616c"/></svg>

<?xml version="1.0" encoding="UTF-8" standalone="no"?>
<svg xmlns="http://www.w3.org/2000/svg" width="22" height="22" viewBox="0 0 22 22">
 <defs>
  <style type="text/css" id="current-color-scheme">
   .ColorScheme-Text { color:#5c616c; } .ColorScheme-Highlight { color:#5294e2; }
  </style>
 </defs>
 <path style="fill:currentColor;opacity:1" class="ColorScheme-Text" transform="translate(3 3)" d="M 8 3 L 6 7 L 10 7 L 8 3 z M 4 9 L 0 11 L 4 13 L 4 9 z M 12 9 L 12 13 L 16 11 L 12 9 z M 8 10 C 7.446 10 7 10.446 7 11 C 7 11.554 7.446 12 8 12 C 8.554 12 9 11.554 9 11 C 9 10.446 8.554 10 8 10 z"/>
</svg>
